X: 631
T: Ku qiuxiang
L: 1/8
M: 2/4
K: F
G c c A/ G/ [I:setbarnb 1]| 
F AG2 | 
f> d c A | 
F> D C/ D/ C | 
D F G c | 
A/ c/G2F | 
D> F C/ D/ C/ A,/ | 
G,4 |]

@@@ Tune index: 9505
